X:71
T:BAL PALUDIER
Z: Yves BELOTTEAU
M:6/8
L:1/8
Q:1/4=85
K:G
|:D/2E/2F/2G3/2 A/2A/2B/2A/2G/2B/2|A3/2D/2E/2F/2 G3/2A/2B/2A/2|G3/2:|
|:B/2B/2B/2AB/2|E/2E/2F/2GG/2 B/2B/2B/2AB/2|GF/2E3/2:|
